material/.icons/material/curling.svg

<svg xmlns="http://www.w3.org/2000/svg" viewBox="0 0 24 24"><path d="M10 3v2c2.5 0 3.9.05 4.72.41.54.24 1.01.8 1.53 1.59H5v2h14.62l-.73-1.45c-1.03-2.05-1.93-3.33-3.36-3.96C14.1 2.95 12.5 3 10 3m-4 8c-2.22 0-4 1.78-4 4v3c0 2.22 1.78 4 4 4h12c2.22 0 4-1.78 4-4v-3c0-2.22-1.78-4-4-4H6z"/></svg>

<?xml version="1.0" encoding="UTF-8"?><!DOCTYPE svg PUBLIC "-//W3C//DTD SVG 1.1//EN" "http://www.w3.org/Graphics/SVG/1.1/DTD/svg11.dtd"><svg xmlns="http://www.w3.org/2000/svg" xmlns:xlink="http://www.w3.org/1999/xlink" version="1.1" id="mdi-curling" width="24" height="24" viewBox="0 0 24 24"><path d="M10,3V5C12.5,5 13.9,5.05 14.72,5.41C15.26,5.65 15.73,6.21 16.25,7H5V9H19.62L18.89,7.55C17.86,5.5 16.96,4.22 15.53,3.59C14.1,2.95 12.5,3 10,3M6,11C3.78,11 2,12.78 2,15V18C2,20.22 3.78,22 6,22H18C20.22,22 22,20.22 22,18V15C22,12.78 20.22,11 18,11H6Z" /></svg>
